X: 9116
T: Da Trowie Spring
R: reel
M: 4/4
K: Dmixolydian
D2 DD B2 GA|Bd BG AG E2|1 D2 DD B3 A|GE DB, G,3 E:|2 DE GA B2 dB|AG AB d2 Bd||
|:ed Bd G2 Bd|ed BG AG E2|1 ed Bd G2 AB|A3 B d2 Bd:|2 DE GA B2 dB|AG ED B,2 A,2|G,2 G,G, G,4||

